svg/black/sei.svg

<?xml version="1.0" encoding="UTF-8"?>
<svg xmlns="http://www.w3.org/2000/svg" xmlns:xlink="http://www.w3.org/1999/xlink" width="32px" height="32px" viewBox="0 0 32 32" version="1.1">
<g id="surface1">
<path style=" stroke:none;fill-rule:nonzero;fill:rgb(0%,0%,0%);fill-opacity:1;" d="M 13.011719 0.347656 C 7.765625 1.300781 3.183594 5.050781 1.175781 10.035156 C 0.71875 11.195312 0.195312 13.105469 0.316406 13.230469 C 0.347656 13.273438 0.761719 13.203125 1.21875 13.09375 C 3.460938 12.511719 5.742188 13.078125 7.570312 14.683594 C 8.707031 15.683594 9.050781 15.832031 10.105469 15.832031 C 11.210938 15.832031 11.5 15.695312 13.453125 14.160156 C 15.167969 12.816406 16.25 12.261719 17.605469 12.042969 C 19.28125 11.75 21.34375 12.25 22.65625 13.246094 C 23.613281 13.980469 27.40625 17.316406 27.40625 17.425781 C 27.40625 17.480469 26.863281 18.132812 26.214844 18.878906 C 25.148438 20.082031 24.996094 20.207031 24.789062 20.027344 C 20.277344 16.054688 20.082031 15.917969 19.128906 15.738281 C 18.132812 15.542969 17.398438 15.863281 15.597656 17.257812 C 14.671875 17.980469 13.621094 18.726562 13.257812 18.90625 C 10.671875 20.222656 7.695312 19.765625 5.300781 17.6875 C 3.984375 16.539062 2.851562 16.316406 1.578125 16.953125 C 1.191406 17.148438 0.71875 17.480469 0.511719 17.6875 L 0.125 18.089844 L 0.347656 19.128906 C 0.789062 21.273438 1.660156 23.292969 2.949219 25.164062 L 3.640625 26.171875 L 4 25.839844 C 4.195312 25.675781 4.941406 24.984375 5.632812 24.332031 C 7.183594 22.878906 8.414062 22.226562 9.992188 21.992188 C 11.917969 21.714844 13.882812 22.324219 15.445312 23.695312 C 16.679688 24.773438 17.382812 25.011719 18.5625 24.761719 C 19.058594 24.652344 19.488281 24.414062 20.179688 23.847656 C 21.773438 22.546875 23.140625 22.007812 24.914062 22.007812 C 26.464844 22.007812 28.125 22.574219 29.175781 23.445312 C 29.398438 23.652344 29.632812 23.804688 29.675781 23.804688 C 29.828125 23.804688 30.601562 22.105469 30.988281 20.925781 C 31.570312 19.167969 31.765625 17.867188 31.75 15.847656 C 31.722656 12.941406 31.074219 10.519531 29.621094 7.984375 C 29.136719 7.128906 28.953125 6.921875 28.691406 6.921875 C 28.167969 6.921875 27.53125 7.253906 26.710938 7.945312 C 25.136719 9.300781 23.167969 9.9375 21.289062 9.6875 C 19.722656 9.480469 18.671875 8.984375 17.246094 7.765625 C 16.179688 6.863281 15.347656 6.644531 14.242188 6.976562 C 13.589844 7.15625 13.230469 7.433594 11.417969 9.136719 C 10.285156 10.199219 9.316406 11.074219 9.273438 11.074219 C 9.175781 11.074219 6.78125 8.5 6.78125 8.402344 C 6.78125 8.359375 7.765625 7.417969 8.953125 6.3125 C 10.65625 4.71875 11.347656 4.167969 12.109375 3.804688 C 14.683594 2.53125 17.316406 2.921875 19.722656 4.914062 C 20.859375 5.855469 21.09375 5.953125 22.089844 5.953125 C 23.046875 5.953125 23.542969 5.730469 24.484375 4.925781 C 24.886719 4.566406 25.410156 4.179688 25.621094 4.070312 C 25.839844 3.957031 26.019531 3.820312 26.019531 3.765625 C 26.007812 3.613281 24.96875 2.878906 23.738281 2.160156 C 22.351562 1.371094 20.304688 0.621094 18.726562 0.347656 C 17.273438 0.0976562 14.421875 0.0976562 13.011719 0.347656 Z M 13.011719 0.347656 "/>
<path style=" stroke:none;fill-rule:nonzero;fill:rgb(0%,0%,0%);fill-opacity:1;" d="M 9.578125 26.007812 C 9.328125 26.132812 8.527344 26.796875 7.792969 27.472656 L 6.464844 28.707031 L 6.933594 29.09375 C 7.640625 29.6875 10.007812 30.808594 11.363281 31.195312 C 14.976562 32.222656 18.921875 31.984375 22.269531 30.546875 C 23.667969 29.9375 25.425781 28.789062 26.546875 27.75 C 27.390625 26.976562 27.40625 26.949219 27.167969 26.671875 C 26.769531 26.226562 25.605469 25.742188 24.914062 25.742188 C 24.152344 25.742188 23.253906 26.144531 22.546875 26.78125 C 19.792969 29.257812 15.929688 29.230469 13.191406 26.699219 C 12.859375 26.394531 12.359375 26.046875 12.109375 25.9375 C 11.445312 25.660156 10.144531 25.703125 9.578125 26.007812 Z M 9.578125 26.007812 "/>
</g>
</svg>

<svg xmlns="http://www.w3.org/2000/svg" width="32" height="32" viewBox="0 0 32 32"><path d="M13.012.348C7.766 1.3 3.184 5.05 1.176 10.035c-.457 1.16-.98 3.07-.86 3.195.032.043.446-.027.903-.136 2.242-.582 4.523-.016 6.351 1.59 1.137 1 1.48 1.148 2.535 1.148 1.106 0 1.395-.137 3.348-1.672 1.715-1.344 2.797-1.898 4.152-2.117 1.676-.293 3.739.207 5.051 1.203.957.734 4.75 4.07 4.75 4.18 0 .054-.543.707-1.191 1.453-1.067 1.203-1.219 1.328-1.426 1.148-4.512-3.972-4.707-4.109-5.66-4.289-.996-.195-1.73.125-3.531 1.52-.926.722-1.977 1.469-2.34 1.648-2.586 1.317-5.563.86-7.957-1.218-1.317-1.149-2.45-1.372-3.723-.735-.387.195-.86.527-1.066.735l-.387.402.223 1.039c.441 2.144 1.312 4.164 2.601 6.035l.692 1.008L4 25.84a73 73 0 0 0 1.633-1.508c1.55-1.453 2.781-2.105 4.36-2.34 1.925-.277 3.89.332 5.452 1.703 1.235 1.078 1.938 1.317 3.117 1.067.497-.11.926-.348 1.618-.914 1.593-1.301 2.96-1.84 4.734-1.84 1.55 0 3.211.566 4.262 1.437.222.207.457.36.5.36.152 0 .926-1.7 1.312-2.88.582-1.757.778-3.058.762-5.077-.027-2.907-.676-5.328-2.129-7.864-.484-.855-.668-1.062-.93-1.062-.523 0-1.16.332-1.98 1.023-1.574 1.356-3.543 1.992-5.422 1.742-1.566-.207-2.617-.703-4.043-1.921-1.066-.903-1.898-1.121-3.004-.79-.652.18-1.012.458-2.824 2.16-1.133 1.063-2.102 1.938-2.145 1.938-.097 0-2.492-2.574-2.492-2.672 0-.043.985-.984 2.172-2.09 1.703-1.593 2.395-2.144 3.156-2.507 2.575-1.274 5.207-.883 7.614 1.11 1.136.94 1.37 1.038 2.367 1.038.957 0 1.453-.223 2.394-1.027.403-.36.926-.746 1.137-.856.219-.113.399-.25.399-.304-.012-.153-1.051-.887-2.282-1.606-1.386-.789-3.433-1.539-5.011-1.812-1.454-.25-4.305-.25-5.715 0m-3.434 25.66c-.25.125-1.05.789-1.785 1.465l-1.328 1.234.469.387c.707.593 3.074 1.715 4.43 2.101 3.613 1.028 7.558.79 10.906-.648 1.398-.61 3.156-1.758 4.277-2.797.844-.773.86-.8.621-1.078-.398-.445-1.563-.93-2.254-.93-.762 0-1.66.403-2.367 1.04-2.754 2.476-6.617 2.448-9.356-.083-.332-.304-.832-.652-1.082-.762-.664-.277-1.964-.234-2.53.07m0 0" style="stroke:none;fill-rule:nonzero;fill:#000;fill-opacity:1"/></svg>
